X: 984
T: Havuzun Başında İskemlem Kaldı
C: Ahmet Altuner
O: Turkey
F: http://compmusic.upf.edu/node/140
N: tahir--turku--aksak--havuzun_basinda--cankiri
N: makam= tahir
N: form= turku
N: usul= aksak = 9/8
M: 9/8
L: 1/16
K: C _2/4B ^3/4f  
Q: 1/4=360
%%MIDI tuningsystem comma53
d4 d2c2 d4 c4 B2 | c4B2 A2A4A2 B2d2  | \
w:  ARANAĞME  |   | 
c2B2 B2A2 A4 d6 | d4d2 c2d4c4B2  | 
w:   |  ARANAĞME  | 
c4 B2A2 A4 A2B2 d2 | c2 B2B2 A2A4A6  | \
w:   |   | 
g4 f2g2 a4 a6 | c'6 b2a2 g2f2 e2d2  | 
w:  Ha vu *  zun  ba  |  şın *  da   | 
e4 g2f2 g2f2 e4 d2 | e2 d2e2 c2d8-d2  | \
w:  is kem *  lem  *  kal  |  dı  *  a *  man    | 
g4 f2g2 a4 a6 | c'6 b2a2 g2f2 e2d2  | 
w:  Ha vu *  zun  ba  |  şın *  da   | 
e4 g2f2 g2f2 e4 d2 | e2 d2e2 c2d8-d2  | \
w:  is kem *  lem  *  kal  |  dı  *  a *  man    | 
d4 d2c2 d4 c4 B2 | c4B2 A2A4A2 B2d2  | 
w:  Ya man  *  Çan kı  |  rı lar  *  oğ la *  nı  | 
c2B2 B2A2 A4 d6 | d4d2 c2d4c4B2  | c4 B2A2 A4 A2B2 d2 | \
w:  mı  *  al *  dı    |  Oğ la *  nı mı   |  al dı  *  da hi   | 
c2 B2B2 A2A4A6  | 
w:  ne *  yim  *  kal dı    | 
d4 d2c2 d4 c4 B2 | c4B2 A2A4A2 B2d2  | \
w:  ARANAĞME  |   | 
c2B2 B2A2 A4 d6 | d4d2 c2d4c4B2  | 
w:   |  ARANAĞME  | 
c4 B2A2 A4 A2B2 d2 | c2 B2B2 A2A4A6  | \
w:   |   | 
g4 f2g2 a4 a6 | c'6 b2a2 g2f2 e2d2  | 
w:  Ha vu *  zun  ba  |  şın *  da   | 
e4 g2f2 g2f2 e4 d2 | e2 d2e2 c2d8-d2  | \
w:  is kem *  lem  *  kal  |  dı  *  a *  man    | 
g4 f2g2 a4 a6 | c'6 b2a2 g2f2 e2d2  | 
w:  Ha vu *  zun  ba  |  şın *  da   | 
e4 g2f2 g2f2 e4 d2 | e2 d2e2 c2d8-d2  | \
w:  is kem *  lem  *  kal  |  dı  *  a *  man    | 
d4 d2c2 d4 c4 B2 | c4B2 A2A4A2 B2d2  | 
w:  Ya man  *  Çan kı  |  rı lar  *  oğ la *  nı  | 
c2B2 B2A2 A4 d6 | d4d2 c2d4c4B2  | c4 B2A2 A4 A2B2 d2 | \
w:  mı  *  al *  dı    |  Oğ la *  nı mı   |  al dı  *  da hi   | 
c2 B2B2 A2A4A6  | 
w:  ne *  yim  *  kal dı    | 
|


